X:69
T:Bohola Jig
C:Traditional
R:jig
M:6/8
K:D
e | fef d2B | (A/B/A)A ABd | (e/f/e)e edB | (e/f/e)e e2e |
fef d2B | (A/B/A)A ABd | ef/e/e edB | de/d/d d2 :|
e | fef a2e | fef a2f | (e/f/e)e edB | (e/f/e)e e2e |
|[1 fef a2e | fef a2f | (e/f/e)e edB | de/d/d d2:|
|[2 fef d2B | (A/B/A)A ABd | (e/f/e)e edB | de/d/d d2 |]

